X:1
T:The Mill
C:Anonymous; arr. T. S. Macdonald
M:4/4
K:D
%%staves { 1 2 }
V:1
de | "D"f2 A>B A3 d | "G"B>A Bd "A"e2 de | "D"f2 A>A "G"gfed | "G-A"B3 c "D"d2 :|
A2 | "D"d>efg a2 aa | "G"bagf "A"e2 A>A | "Bm"d>efg "G"a>bag | "D"f3 g "A"a2 A>A |
     "D"d>efg a2 ga | "G"bagf "A"e2 de | "D"f2 A>A "G"gfed | "G-A"B3 c "D"d2 :|]
V:2
L:1/4
"0"D | D4 | "0"G,2 "1"A,2 | "0"D2 "1"E "2"F | "3"G > "1"E "2"F :|
"0"D | D4 | "0"G,2 "1"A,2 | "0"D4 | "0"D2 "1"A,2 |
       D4 | "0"G,2 "1"A,2 | "0"D2 "1"E "2"F | "3"G > "1"E "2"F :|]



